icons/arrow-circle-right.svg

<svg width="24" height="24" viewBox="0 0 24 24" fill="none" xmlns="http://www.w3.org/2000/svg">
<path fill-rule="evenodd" clip-rule="evenodd" d="M12 3.75C7.44365 3.75 3.75 7.44365 3.75 12C3.75 16.5563 7.44365 20.25 12 20.25C16.5563 20.25 20.25 16.5563 20.25 12C20.25 7.44365 16.5563 3.75 12 3.75ZM2.25 12C2.25 6.61522 6.61522 2.25 12 2.25C17.3848 2.25 21.75 6.61522 21.75 12C21.75 17.3848 17.3848 21.75 12 21.75C6.61522 21.75 2.25 17.3848 2.25 12Z" fill="black"/>
<path fill-rule="evenodd" clip-rule="evenodd" d="M8.25 12C8.25 11.5858 8.58579 11.25 9 11.25H15.6C16.0142 11.25 16.35 11.5858 16.35 12C16.35 12.4142 16.0142 12.75 15.6 12.75H9C8.58579 12.75 8.25 12.4142 8.25 12Z" fill="black"/>
<path fill-rule="evenodd" clip-rule="evenodd" d="M12.4697 8.61957C12.7626 8.32668 13.2374 8.32668 13.5303 8.61957L16.0303 11.1196C16.5232 11.6125 16.5232 12.3873 16.0303 12.8802L13.5303 15.3802C13.2374 15.6731 12.7626 15.6731 12.4697 15.3802C12.1768 15.0873 12.1768 14.6125 12.4697 14.3196L14.7893 11.9999L12.4697 9.68023C12.1768 9.38734 12.1768 8.91247 12.4697 8.61957Z" fill="black"/>
</svg>

<svg xmlns="http://www.w3.org/2000/svg" fill="none" viewBox="0 0 24 24">
  <path fill="#000" fill-rule="evenodd" d="M12 3.75a8.25 8.25 0 1 0 0 16.5 8.25 8.25 0 0 0 0-16.5ZM2.25 12c0-5.385 4.365-9.75 9.75-9.75s9.75 4.365 9.75 9.75-4.365 9.75-9.75 9.75S2.25 17.385 2.25 12Z" clip-rule="evenodd"/>
  <path fill="#000" fill-rule="evenodd" d="M8.25 12a.75.75 0 0 1 .75-.75h6.6a.75.75 0 0 1 0 1.5H9a.75.75 0 0 1-.75-.75Z" clip-rule="evenodd"/>
  <path fill="#000" fill-rule="evenodd" d="M12.47 8.62a.75.75 0 0 1 1.06 0l2.5 2.5a1.233 1.233 0 0 1 0 1.76l-2.5 2.5a.75.75 0 1 1-1.06-1.06L14.79 12l-2.32-2.32a.75.75 0 0 1 0-1.06Z" clip-rule="evenodd"/>
</svg>
